icons/on-the-ground-elevation-24.svg

<svg xmlns="http://www.w3.org/2000/svg" viewBox="0 0 24 24"><path fill="none" d="M0 0h24v24H0z"/><path d="M12.5 21.9a2.4 2.4 0 1 0-2.4-2.4 2.402 2.402 0 0 0 2.4 2.4zm0-3.9a1.5 1.5 0 1 1-1.5 1.5 1.502 1.502 0 0 1 1.5-1.5zM23 22v1H1V2h1v2h2v1H2v2h2v1H2v2h2v1H2v2h2v1H2v2h2v1H2v2h2v1H2v2z"/></svg>

<svg id="icons" xmlns="http://www.w3.org/2000/svg" viewBox="0 0 24 24"><defs><style>.cls-1{fill:none;}</style></defs><rect class="cls-1" width="24" height="24"/><path d="M12.5,21.9a2.4,2.4,0,1,0-2.4-2.4A2.40223,2.40223,0,0,0,12.5,21.9Zm0-3.9A1.5,1.5,0,1,1,11,19.5,1.50164,1.50164,0,0,1,12.5,18ZM23,22v1H1V2H2V4H4V5H2V7H4V8H2v2H4v1H2v2H4v1H2v2H4v1H2v2H4v1H2v2Z"/></svg>
